svgs/sharp-solid/seal-exclamation.svg

<svg xmlns="http://www.w3.org/2000/svg" viewBox="0 0 512 512"><!--! Font Awesome Pro 6.6.0 by @fontawesome - https://fontawesome.com License - https://fontawesome.com/license (Commercial License) Copyright 2024 Fonticons, Inc. --><path d="M256 0l75 75 106 0 0 106 75 75-75 75 0 106-106 0-75 75-75-75L75 437l0-106L0 256l75-75L75 75l106 0L256 0zm24 128l-48 0 0 24 0 112 0 24 48 0 0-24 0-112 0-24zM232 320l0 48 48 0 0-48-48 0z"/></svg>

<svg xmlns="http://www.w3.org/2000/svg" viewBox="0 0 512 512"><!--! Font Awesome Pro 6.4.0 by @fontawesome - https://fontawesome.com License - https://fontawesome.com/license (Commercial License) Copyright 2023 Fonticons, Inc. --><path d="M256 0l75 75H437V181l75 75-75 75V437H331l-75 75-75-75H75V331L0 256l75-75V75H181L256 0zm24 128H232v24V264v24h48V264 152 128zM232 320v48h48V320H232z"/></svg>
